assets/svg/cog-black.svg

<svg height="18" viewBox="0 0 17 18" width="17" xmlns="http://www.w3.org/2000/svg"><path d="m969 289.199844v-3.399948h-1.894792c-.150521-.63749-.39401-1.239564-.71276-1.792941l1.319271-1.314824-2.403907-2.403869-1.288281 1.288261c-.557812-.34088-1.16875-.597647-1.819531-.765874v-1.810649h-3.4v1.810649c-.650781.168227-1.261719.429421-1.819531.765874l-1.288281-1.288261-2.403907 2.403869 1.319271 1.314824c-.31875.553377-.557812 1.155451-.71276 1.792941h-1.894792v3.399948h1.952344c.168229.606501.420573 1.177586.739323 1.708828l-1.403386 1.403364 2.403907 2.403869 1.429947-1.429926c.517969.301037 1.084636.526815 1.677865.681761v2.036427h3.4v-2.036427c.597656-.154946 1.159896-.380724 1.677865-.681761l1.429947 1.429926 2.403907-2.403869-1.398959-1.403364c.31875-.526815.571094-1.0979.739323-1.708828zm-8.5.68176c-1.314844 0-2.377344-1.066911-2.377344-2.381734 0-1.314824 1.0625-2.381735 2.377344-2.381735s2.381771 1.066911 2.381771 2.381735c0 1.314823-1.066927 2.381734-2.381771 2.381734z" fill="#111" transform="translate(-952 -279)"/></svg>

<?xml version="1.0" encoding="UTF-8"?>
<svg width="17px" height="18px" viewBox="0 0 17 18" version="1.1" xmlns="http://www.w3.org/2000/svg" xmlns:xlink="http://www.w3.org/1999/xlink">
    <!-- Generator: Sketch 48.2 (47327) - http://www.bohemiancoding.com/sketch -->
    <title>Shape</title>
    <desc>Created with Sketch.</desc>
    <defs></defs>
    <g id="Modal-Account" stroke="none" stroke-width="1" fill="none" fill-rule="evenodd" transform="translate(-952.000000, -279.000000)">
        <path d="M969,289.199844 L969,285.799896 L967.105208,285.799896 C966.954687,285.162406 966.711198,284.560332 966.392448,284.006955 L967.711719,282.692131 L965.307812,280.288262 L964.019531,281.576523 C963.461719,281.235643 962.850781,280.978876 962.2,280.810649 L962.2,279 L958.8,279 L958.8,280.810649 C958.149219,280.978876 957.538281,281.24007 956.980469,281.576523 L955.692188,280.288262 L953.288281,282.692131 L954.607552,284.006955 C954.288802,284.560332 954.04974,285.162406 953.894792,285.799896 L952,285.799896 L952,289.199844 L953.952344,289.199844 C954.120573,289.806345 954.372917,290.37743 954.691667,290.908672 L953.288281,292.312036 L955.692188,294.715905 L957.122135,293.285979 C957.640104,293.587016 958.206771,293.812794 958.8,293.96774 L958.8,296.004167 L962.2,296.004167 L962.2,293.96774 C962.797656,293.812794 963.359896,293.587016 963.877865,293.285979 L965.307812,294.715905 L967.711719,292.312036 L966.31276,290.908672 C966.63151,290.381857 966.883854,289.810772 967.052083,289.199844 L969,289.199844 Z M960.5,289.881604 C959.185156,289.881604 958.122656,288.814693 958.122656,287.49987 C958.122656,286.185046 959.185156,285.118135 960.5,285.118135 C961.814844,285.118135 962.881771,286.185046 962.881771,287.49987 C962.881771,288.814693 961.814844,289.881604 960.5,289.881604 Z" id="Shape" fill="#111111" fill-rule="nonzero"></path>
    </g>
</svg>
